assets/img/icons/duotone-icons/Communication/Chat#6.svg

<?xml version="1.0" encoding="UTF-8"?>
<svg width="24px" height="24px" viewBox="0 0 24 24" version="1.1" xmlns="http://www.w3.org/2000/svg" xmlns:xlink="http://www.w3.org/1999/xlink">
    <!-- Generator: Sketch 52.2 (67145) - http://www.bohemiancoding.com/sketch -->
    <title>Stockholm-icons / Communication / Chat#6</title>
    <desc>Created with Sketch.</desc>
    <g id="Stockholm-icons-/-Communication-/-Chat#6" stroke="none" stroke-width="1" fill="none" fill-rule="evenodd">
        <rect id="bound" x="0" y="0" width="24" height="24"></rect>
        <path d="M14.486222,18 L12.7974954,21.0565532 C12.530414,21.5399639 11.9220198,21.7153335 11.4386091,21.4482521 C11.2977127,21.3704077 11.1776907,21.2597005 11.0887419,21.1255379 L9.01653358,18 L5,18 C3.34314575,18 2,16.6568542 2,15 L2,6 C2,4.34314575 3.34314575,3 5,3 L19,3 C20.6568542,3 22,4.34314575 22,6 L22,15 C22,16.6568542 20.6568542,18 19,18 L14.486222,18 Z" id="Combined-Shape" fill="#335EEA" opacity="0.3"></path>
        <path d="M6,7 L15,7 C15.5522847,7 16,7.44771525 16,8 C16,8.55228475 15.5522847,9 15,9 L6,9 C5.44771525,9 5,8.55228475 5,8 C5,7.44771525 5.44771525,7 6,7 Z M6,11 L11,11 C11.5522847,11 12,11.4477153 12,12 C12,12.5522847 11.5522847,13 11,13 L6,13 C5.44771525,13 5,12.5522847 5,12 C5,11.4477153 5.44771525,11 6,11 Z" id="Combined-Shape" fill="#335EEA" opacity="0.3"></path>
    </g>
</svg>

<svg width="24" height="24" viewBox="0 0 24 24" xmlns="http://www.w3.org/2000/svg"><g fill="none" fill-rule="evenodd"><path d="M0 0h24v24H0z"/><path d="M14.486 18l-1.689 3.057a1 1 0 01-1.708.069L9.017 18H5a3 3 0 01-3-3V6a3 3 0 013-3h14a3 3 0 013 3v9a3 3 0 01-3 3h-4.514z" fill="#335EEA" opacity=".3"/><path d="M6 7h9a1 1 0 010 2H6a1 1 0 110-2zm0 4h5a1 1 0 010 2H6a1 1 0 010-2z" fill="#335EEA" opacity=".3"/></g></svg>
